X:1
T:James Gibb editions
T:Since first I saw your face - Ford
T:#
%%score [ 1 2 3 4 ]
L:1/8
Q:1/4=100
M:4/4
K:D
V:1 treble nm="Soprano" snm="S"
V:2 treble nm="Alto" snm="A"
V:3 treble-8 nm="Tenor" snm="T"
V:4 bass nm="Bass" snm="B"
V:1
"^Since first I saw your face""^Thomas Ford\n(c. 1580-1648)"{[Dd]} D2 | D3 E F2 G2 | A2 GF E2 B2 | %3
w: Since|first I saw your|face I re- solv'd to|
 A3 A G2 F2 | (E3 D) D2 D2 | D3 E F2 G2 | A2 GF E2 B2 | A3 A G2 F2 | (E3 D) D2 F2 | B3 B ^G2 E2 | %10
w: hon- our and re-|nown * ye; If|now I be dis-|dain- ed, I wish my|heart had ne- ver|known * ye. What|I that lov'd and|
 A3 A F2 D2 | d3 d d2 c2 | B4 A4 |: z4 B3 G | A3 F G3 E | F2 B2 A3 A ||1[M:3/2] G2 F2 E4 F4 :|2 %17
w: you that liked, shall|we be- gin to|wran- gle?|No, no,|no, my heart is|fast, and can- not|dis- en- tan- gle.|
[M:4/2] G2 F2 E4 F6 z2 ||[M:4/4] z2 D2 | D3 E F2 G2 | A2 GF E2 B2 | A3 A G2 F2 | (E3 D) D2 D2 | %23
w: dis- en- tan- gle.|The|sun, whose beams most|glo- ri- ous are re-|jec- teth no be-|hol\- * der, And|
[M:4/4] D3 E F2 G2 | A2 (GF) E2 B2 | A3 A G2 F2 | (E3 D) D2 F2 | B3 B ^G2 E2 | A3 A F2 D2 | %29
w: your sweet beau- ty|past com\- * pare made|my poor eyes the|bol\- * der; Where|beau- ty moves and|wit de- lights, and|
 d3 d d2 c2 | B4 A4 | z4 B3 G | A3 F G3 E | F2 B2 A3 A ||[M:3/2] G2 F2 E4 F4 ||[M:4/4] z4 B3 G | %36
w: signs of kind- ness|bind me,|There, O|there, wher- e'er I|go, I leave my|heart be- hind me.|There, O|
 A3 F G3 E ||[M:3/2][Q:1/4=98] F2[Q:1/4=97] B2[Q:1/4=94] A3[Q:1/4=92] A[Q:1/4=91] G2[Q:1/4=89] F2 | %38
w: there, wher- e'er I|go, I leave my heart be-|
[Q:1/4=86] E4[Q:1/4=85] F6 z2 |] %39
w: hind me.|
V:2
{[B,G]} D2 | D3 D D2 D2 | E2 EE E2 E2 | F3 F B,2 D2 | (D2 C2) D2 D2 | D3 D D2 D2 | E2 EE E2 E2 | %7
w: Since|first I saw your|face I re- solv'd to|hon- our and re-|nown * ye; If|now I be dis-|dain- ed, I wish my|
 F3 F B,2 D2 | (D2 C2) D2 D2 | ^D3 D E3 E | E2 C2 D2 D2 | F2 =G2 G2 E2 | E4 C4 |: E2 F2 D2 E2 | %14
w: heart had ne- ver|known * ye. What|I that lov'd and|you that liked, shall|we be- gin to|wran- gle?|No, no, no, my|
 C2 D2 B,3 C | D2 B,2 C3 (C ||1[M:3/2] B,C (D2-) D2 C2) D4 :|2[M:4/2] (B,C) (D2- D2 C2) D6 z2 || %18
w: heart is fast and|can- not dis- en\-|* * tan\- * * gle.|* * tan\- * * gle.|
[M:4/4] z2 D2 | D3 D D2 D2 | E2 EE E2 E2 | F3 F B,2 D2 | (D2 C2) D2 D2 |[M:4/4] D3 D D2 D2 | %24
w: The|sun, whose beams most|glo- ri- ous are re-|jec- teth no be-|hol\- * der, And|your sweet beau- ty|
 E2 E2 E2 E2 | F3 F B,2 D2 | (D2 C2) D2 D2 | ^D3 D E3 E | E2 C2 D2 D2 | F2 =G2 G2 E2 | E4 C4 | %31
w: past com- pare made|my poor eyes the|bol\- * der; Where|beau- ty moves and|wit de- lights, and|signs of kind- ness|bind me,|
 E2 F2 D2 E2 | C2 D2 B,3 C | D2 B,2 C3 (C ||[M:3/2] B,C (D2-) D2 C2) D4 ||[M:4/4] E2 F2 D2 E2 | %36
w: There, O there, wher-|e'er I go, I|leave my heart be\-|* * hind * * me.|There, O there, wher-|
 C2 D2 B,3 C ||[M:3/2] D2 B,2 C3 (CB,C) (D2- | D2 C2) D6 z2 |] %39
w: e'er I go, I|leave my heart be\- * * hind|* * me.|
V:3
{[Ed]} A2 | A3 A A2 B2 | c2 cc c2 (Bc) | d2 A2 B2 (FG) | A4 F2 A2 | A3 A A2 B2 | c2 cc c2 (Bc) | %7
w: Since|first I saw your|face I re- solv'd to *|hon- our and re\- *|nown ye; If|now I be dis-|dain- ed, I wish my *|
 d2 A2 B2 (FG) | A4 F2 A2 | B3 B B2 ^G2 | E2 A2 A2 F2 | B3 B B2 A2 | (A2 ^G2) A4 |: c3 d B3 c | %14
w: heart had ne- ver *|known ye. What|I that lov'd and|you that liked, shall|we be- gin to|wran\- * gle?|No, no, no, my|
 A3 B G3 A | F2 G2 E3 (F ||1[M:3/2] GABF A4) A4 :|2[M:4/2] (GABF) A4 A6 z2 || %18
w: heart is fast and|can- not dis- en\-|* * * * tan- gle.|* * * * tan- gle.|
[M:4/4][K:treble-8] z2 A2 | A3 A A2 B2 | c2 cc c2 (Bc) | d2 A2 B2 (FG) | A4 F2 A2 | %23
w: The|sun, whose beams most|glo- ri- ous are re\- *|jec- teth no be\- *|hol- der, And|
[M:4/4][K:treble-8] A3 A A2 B2 | c2 c2 c2 (Bc) | d2 A2 B2 (FG) | A4 F2 A2 | B3 B B2 ^G2 | %28
w: your sweet beau- ty|past com- pare made *|my poor eyes the *|bol- der; Where|beau- ty moves and|
 E2 A2 A2 F2 | B3 B B2 A2 | (A2 ^G2) A4 | c3 d B3 c | A3 B G3 A | F2 G2 E3 (F || %34
w: wit de- lights, and|signs of kind- ness|bind * me,|There, O there, wher-|e'er I go, I|leave my heart be\-|
[M:3/2] GABF A4) A4 ||[M:4/4][K:treble-8] c3 d B3 c | A3 B G3 A ||[M:3/2] F2 G2 E3 (FGABF) | %38
w: * * * * hind me.|There, O there, wher-|e'er I go, I|leave my heart be\- * * * *|
 A4 A6 z2 |] %39
w: hind me.|
V:4
{[G,,A,]} D,2 | D,3 D, D,2 B,,2 | A,,2 A,,A,, A,2 G,2 | F,3 F, E,2 D,2 | A,,4 D,2 D,2 | %5
w: Since|first I saw your|face I re- solv'd to|hon- our and re-|nown ye; If|
 D,3 D, D,2 B,,2 | A,,2 A,,A,, A,2 G,2 | F,3 F, E,2 D,2 | A,,4 D,4 | z2 B,,2 E,3 E, | %10
w: now I be dis-|dain- ed, I wish my|heart had ne- ver|known ye.|What I that|
 C,2 A,,2 D,3 D, | B,,2 =G,,2 G,,G,,A,,A,, | E,4 A,,4 |: A,3 F, G,3 E, | F,3 D, E,3 A,, | %15
w: lov'd and you that|liked, shall we be- gin to|wran- gle?|No, no, no, my|heart is fast and|
 D,2 G,,2 (A,,B,,C,D, ||1[M:3/2] E,2 D,2) A,,4 D,4 :|2[M:4/2] E,2 D,2 A,,4 D,6 z2 || %18
w: can- not dis\- * * *|* en- tan- gle.|* en- tan- gle.|
[M:4/4] z2 D,2 | D,3 D, D,2 B,,2 | A,,2 A,,A,, A,2 G,2 | F,3 F, E,2 D,2 | A,,4 D,2 D,2 | %23
w: The|sun, whose beams most|glo- ri- ous are re-|jec- teth no be-|hol- der, And|
[M:4/4] D,3 D, D,2 B,,2 | A,,2 A,,2 A,2 G,2 | F,3 F, E,2 D,2 | A,,4 D,4 | z2 B,,2 E,3 E, | %28
w: your sweet beau- ty|past com- pare made|my poor eyes the|bol- der;|Where beau- ty|
 C,2 A,,2 D,3 D, | B,,2 =G,,2 G,,G,,A,,A,, | E,4 A,,4 | A,3 F, G,3 E, | F,3 D, E,3 A,, | %33
w: moves and wit de-|lights, and signs of kind- ness|bind me,|There, O there, wher-|e'er I go, I|
 D,2 G,,2 (A,,B,,C,D, ||[M:3/2] E,2 D,2) A,,4 D,4 ||[M:4/4] A,3 F, G,3 E, | F,3 D, E,3 A,, || %37
w: leave my heart * * *|* be- hind me.|There, O there, wher-|e'er I go, I|
[M:3/2] D,2 G,,2 (A,,B,,C,D, E,2) D,2 | A,,4 D,6 z2 |] %39
w: leave my heart * * * * be-|hind me.|

